images/fish.svg

<svg fill="none" height="60" viewBox="0 0 60 60" width="60" xmlns="http://www.w3.org/2000/svg" xmlns:xlink="http://www.w3.org/1999/xlink"><clipPath id="a"><path d="m0 0h60v60h-60z"/></clipPath><g clip-path="url(#a)"><path d="m21.0408 1.16113c15.2483 0 21.4826 10.94477 19.5169 24.46487-1.9658 13.52-6.9755 20.795-11.4686 20.795-7.1609 0-.9716-15.1617-8.0483-15.1617s-.8874 15.1617-8.0483 15.1617c-4.4931 0-9.50286-7.275-11.46859-20.795-1.965731-13.5201 4.26854-24.46487 19.51689-24.46487z" fill="#c16a73"/><path d="m29.0891 43.6085c-.3776 0-.4457 0-.6552-.5579-.388-1.0331-.4934-2.753-.5954-4.4161-.1264-2.0623-.2571-4.1947-.9313-6.0019-1.007-2.6992-3.0904-4.1858-5.8664-4.1858s-4.8594 1.4866-5.8665 4.1858c-.6742 1.8072-.8049 3.9396-.9313 6.0019-.102 1.6631-.2074 3.383-.5954 4.4161-.2095.5579-.2776.5579-.6552.5579-.9399 0-2.5517-1.0347-4.25653-3.9388-1.41168-2.4047-3.32594-6.8635-4.42875-14.4484-.97017-6.6728.27209-12.4013 3.498-16.1301 2.93778-3.3958 7.39088-5.11757 13.23568-5.11757 5.8447 0 10.2978 1.72177 13.2356 5.11757 3.2259 3.7288 4.4682 9.4573 3.498 16.1301-1.1028 7.5849-3.0171 12.0437-4.4288 14.4484-1.7048 2.9041-3.3166 3.9388-4.2565 3.9388z" fill="#db7d8b"/><path d="m27.1254 1.16113h-5.3344l.0041.00958c14.6991.35636 20.6956 11.16049 18.7626 24.45529-1.9657 13.52-6.9755 20.795-11.4686 20.795h6.0846c4.4931 0 9.5028-7.275 11.4686-20.795 1.9657-13.5201-4.2686-24.46487-19.5169-24.46487z" fill="#6cacdd"/><path d="m21.0408 31.2593c-7.0766 0-.8875 15.1613-8.048 15.1617h6.0843c5.5709 0 3.0628-9.1753 5.006-13.2503-.5546-1.163-1.471-1.9114-3.0423-1.9114z" fill="#964551"/><path d="m21.0407 25.0472c1.4033 0 2.5408-2.893 2.5408-6.4617s-1.1375-6.4617-2.5408-6.4617c-1.4032 0-2.5407 2.893-2.5407 6.4617s1.1375 6.4617 2.5407 6.4617z" fill="#ef97a8"/><path d="m21.0408 21.1221c1.4009 0 2.5365-1.1356 2.5365-2.5365s-1.1356-2.5365-2.5365-2.5365-2.5365 1.1356-2.5365 2.5365 1.1356 2.5365 2.5365 2.5365z" fill="#fffff5"/><path d="m45.2651 31.2421s-2.9537-2.3293-5.8043-3.2948c0 0-5.0576 4.1379-5.6553 10.4369-.5977 6.2989 1.8289 7.0815 1.8289 7.0815z" fill="#91caed"/><path d="m45.2391 48.361c-1.493 2.543.798 4.1238 1.7777 4.1238 0-4.2914 2.2676-3.8121 3.7395-3.7793 1.4707.0328 2.7585-.0328 2.7585-.0328 0 4.7262-4.0464 5.0836-4.0464 5.0836s4.0464.3574 4.0464 5.0824c0 0-1.2878-.0644-2.7585-.0328-1.4719.0328-3.7395.5122-3.7395-3.7793-9.0738 1.2879-15.9387-10.4051-7.8469-19.5386 8.0918-9.1348 19.6172-3.3715 19.6172-3.3715s.9117 6.9327-5.8242 12.3211c-2.4527 1.9617-6.0691 1.1039-7.7238 3.9234z" fill="#afeeff"/><path d="m42.1041 51.2954c-1.2514-.7754-2.2911-1.9644-2.9643-3.46-1.5087-3.3517-.7104-7.2704 2.1353-10.4824 2.4792-2.7988 5.6243-4.2177 9.3481-4.2177 2.1528 0 4.0723.4752 5.3396.891-.2096 1.9346-1.1296 5.3135-4.7568 8.215-.5756.4603-1.4577.6868-2.4792.949-1.8456.4737-4.3731 1.1225-5.9134 3.7471-.8369 1.4255-1.076 2.956-.7093 4.358z" fill="#caf8ff"/><path d="m46.6513 39.4889c-.3649-.6883-1.0042-1.1911-1.7604-1.3783-1.5513-.3841-3.5613-.2073-2.6309 1.6579 1.2425 2.491 3.3492 5.2752 4.551 1.9314.261-.7259.2016-1.5294-.1597-2.211z" fill="#91caed"/><g fill="#5b5b5b"><path d="m23.4992 23.4121c1.0494-2.5549 1.0495-7.0979 0-9.6528-.5929-1.5079-1.4633-2.3384-2.4509-2.3384-2.5909.164-3.2401 4.647-3.244 7.1648.0001 1.8119.2816 3.526.793 4.8264 1.1763 3.1119 3.7255 3.1128 4.9019 0zm-2.4509-10.585c.5061 0 1.1912 1.0998 1.5656 2.9237-.9151-.5342-2.2162-.5342-3.1313 0 .3744-1.8239 1.0596-2.9237 1.5657-2.9237zm1.8333 5.7586c0 1.0109-.8224 1.8333-1.8333 1.8333-2.4322-.1007-2.4315-3.5663 0-3.6666 1.0109 0 1.8333.8224 1.8333 1.8333zm-3.399 2.8349c.9151.5342 2.2162.5342 3.1313 0-.3744 1.8239-1.0595 2.9237-1.5656 2.9237s-1.1913-1.0998-1.5657-2.9237z"/><path d="m59.4913 32.0242c-.0304-.2314-.1738-.4327-.3827-.537-.1226-.0614-3.0503-1.5059-7.0346-1.8118-1.9374-.1484-3.7839.0034-5.5165.4432 3.8637-15.7364-1.9501-29.661504-19.4248-29.660455.0002-.000043-5.3342-.000043-5.3342-.000043-.0321 0-.0638.002718-.095.007153-15.26208-.492796-23.12484 10.605045-20.867728 25.262245 1.203658 8.13 4.633438 20.8282 12.164128 21.397.0003-.0001 6.0844-.0002 6.0847-.0001 5.4891-.1046 4.3832-7.2538 5.0031-11.1631.63 3.8431-.4932 11.0632 5.0089 11.1631.0329-.0027 6.0928.0035 6.1213-.0014 1.1319 5.1874 6.0046 9.1053 11.129 8.6808.2368 3.1673 1.8142 3.9476 4.432 3.7055 1.4272-.0312 2.6953.0312 2.7079.0318.1914.0098.3805-.0599.5198-.1927.1396-.1328.2186-.3169.2186-.5095-.0552-2.9707-1.2893-4.249-2.6311-5.0828 1.3417-.8318 2.5761-2.1138 2.6312-5.0829-.0001-.1926-.0791-.3767-.2187-.5095-.1396-.1329-.3273-.203-.5199-.1927-.0126.0006-1.2814.0625-2.7078.0318-2.5192-.2273-4.1227.4555-4.4167 3.5176-.9473-.6132-1.195-1.6954-.5097-2.8031 1.4558-2.4842 5.2746-1.7671 7.5571-3.7303 4.4744-3.4581 6.5034-8.9544 6.0817-12.9628zm-33.4215 10.1686c-.1599-.9714-.249-2.1221-.3292-3.4291-.0099-.1615-.0199-.3236-.0301-.4857 1.1096-3.0573 5.6012-3.3222 8.5931-4.4726-.7459 1.6407-1.2293 3.7518-1.2729 5.7217-2.4068.5199-5.4733.8805-6.9609 2.6657zm-2.3923-10.7408c-.3272-.2808-.7044-.4995-1.1097-.6464.4126-1.6888 1.8215-2.9861 3.305-4.3513 2.1421-1.9714 4.5701-4.2057 4.3985-8.0665-.3151-7.0788-4.8592-10.24865-9.223-10.24865-4.364 0-8.9084 3.16895-9.223 10.24865-.1716 3.8608 2.2564 6.0951 4.3986 8.0665 1.4837 1.3654 2.8929 2.6628 3.3052 4.352-.625.2263-1.1537.6068-1.5832 1.1404-1.0645-2.053-3.0625-3.2686-5.007-4.4506-3.13398-1.9049-6.09422-3.7044-5.78969-8.869.24908-4.2245 1.89376-7.6742 4.75609-9.97629 4.9134-4.0762 13.7859-4.07636 18.6993.00006 2.8624 2.30203 4.507 5.75173 4.7561 9.97623.3045 5.1646-2.6557 6.9639-5.7897 8.869-2.0499 1.2461-4.159 2.5296-5.1712 4.7923-.2019-.3073-.4458-.5997-.7223-.8364zm-2.7608-.8939c-1.1994-4.93-8.0208-6.4478-7.6864-12.1079.378-11.88638 15.2593-11.88393 15.6361.0001.3345 5.6596-6.4871 7.1783-7.6865 12.1077-.0876-.0008-.1756-.0009-.2632.0001zm13.9972 12.9389c-.4849-1.2723-.5258-2.665-.4741-4.0121.1281-4.8294 2.8965-8.5778 5.1829-10.7343 1.5676.5928 3.2475 1.6453 4.2329 2.3303-4.7542 2.0904-8.8335 7.7064-8.9417 12.4161zm-4.8536-41.48273c14.9319 1.59336 18.4117 14.69823 15.0335 28.21693-.8383-.6049-2.4313-1.679-4.1616-2.4578 2.0314-10.3062-.183-21.57624-10.8719-25.75913zm-23.84287 5.69698c3.54669-4.35282 10.53337-6.38954 17.18557-5.75067 3.9813.32665 7.9006 1.58577 10.9403 4.21797 5.9327 5.13115 6.6538 13.74995 5.251 21.07705-.2-.0369-.4136.0195-.5712.1476-.1317.1077-2.0739 1.7227-3.7081 4.4463-3.0872 1.6031-7.3496 1.6052-9.8002 4.1331-.0801-.6549-.1884-1.2848-.343-1.868.0949-.0898.1663-.2066.1997-.3429 1.8203-6.2566 11.9406-5.0323 11.393-15.2275-.9614-19.215911-30.05703-19.216659-31.01913 0-.52719 10.0942 9.30343 8.9628 11.34073 15.0324-.2453.7248-.3989 1.5442-.5043 2.406-1.4147-1.5022-3.5824-2.1087-5.6978-2.6993-3.89067-1.0862-7.90804-2.2089-8.76067-8.5412-.84989-6.9576.59212-12.9828 4.0941-17.03085zm4.28847 26.92655c2.6918.7515 5.0222 1.4036 5.8802 3.6402-.0102.1621-.0202.3242-.0301.4857-.0836 1.3002-.1487 2.2976-.3292 3.4291-2.225-2.9015-9.41443-1.969-10.62809-4.5265-.84204-1.9802-1.557-4.2351-2.14962-6.7302 2.00712 2.2354 4.81074 3.0188 7.25681 3.7017zm-3.58157 6.1c-.07789-.1327-.15486-.268-.23134-.4048 2.75811 1.0316 8.39641 1.0646 8.76891 3.8543-.465.9689-1.1935 1.5052-2.3823 1.5284-2.1027.036-4.23757-1.734-6.15527-4.9779zm16.38677-7.5398c-.6229 1.541-.7484 3.585-.8699 5.566-.2656 4.3269-.624 6.9541-3.3566 6.9541h-2.9315c2.8838-3.3398.0703-13.4274 4.5637-13.7393 1.0742-.1091 2.0751.2692 2.5943 1.2192zm3.3236 10.9893c.283-2.0567 3.4805-2.6705 6.3966-3.2228.0309.7573.1391 1.61.3317 2.3165-.7419.8363-1.6007 1.6011-2.6272 2.0642-1.5388.7063-3.4087.4635-4.1011-1.1579zm6.2935 1.4458c.3565-.2787.6913-.5837 1.0109-.9068.2635.4619.5464.778.7958.9918h-1.9139c.0359-.0273.0715-.0569.1072-.085zm24.7829-9.4888c-.6097 2.344-1.8002 4.4382-3.5437 6.2516-3.2455 1.378-5.6227-1.0386-6.6803-2.7492-.9071-1.4297-1.3832-3.6308-.6898-4.9534.1707-.3488.0263-.7699-.3225-.9406-.3485-.1709-.7699-.0265-.9406.3224-.4744.9693-.5795 2.1573-.3648 3.3801-.9574-.2255-2.2737-.4492-3.2663.2663-.3102.2476-.957.9734-.2648 2.3609.8906 1.7856 2.2503 3.8599 3.7595 3.8598 1.0905.0037 1.7406-1.0367 2.0833-1.996 1.31 1.394 2.9732 2.1986 4.6003 2.2581-2.4424 1.4547-5.7554.8994-7.4416 3.8012-.7138 1.216-.7775 2.4608-.1796 3.505.6239 1.0897 1.7865 1.6776 2.5638 1.6776.3883 0 .7031-.3148.7031-.7031 0-1.3536.2352-2.2648.699-2.7084.5482-.5323 1.5336-.3849 2.3219-.368.786.0175 1.5147.0076 2.0331-.0056-.1428 1.3208-.6891 2.3178-1.6292 2.9695-.8508.5897-1.7324.6826-1.7377.6832-.3629.0321-.6412.336-.6412.7004s.2783.6683.6413.7004c.1301.0115 2.9997.3055 3.3663 3.6527-.5861-.0114-1.6065-.0313-2.4201.0088-.7207.0322-1.4659.0654-1.9345-.3826-.4637-.4435-.6989-1.3547-.6989-2.7082 0-.2037-.0884-.3975-.2422-.531-.1537-.1337-.3598-.1939-.5597-.1651-3.784.5356-7.4635-1.4137-9.3755-4.9691-3.6666-6.7493 1.1454-14.8859 7.8675-17.432 4.0995-1.662 9.6186-.7451 12.7064.6535.0257.6158.011 1.9324-.4125 3.5608zm-12.0502 3.0013c.2057.4965.459.9803.7513 1.4355-.3506 1.4784-.7779 1.9265-.9848 1.953-.3631.0471-1.3683-.749-2.5307-3.0795-.0434-.0867-.2525-.5254-.1164-.634.5109-.3914 2.3168-.0496 2.8806.325z"/><path d="m38.0721 41.7011c-.8904.2724-.543 1.5681.3645 1.3582.3234-.0867.6571.1057.7438.4291.0597.2234.2327.4081.4511.4828.132.0441.2753.0496.4103.014.3237-.0865.657.1059.7439.4291.0993.3782.4965.598.8614.4968.375-.1007.5974-.4863.4968-.8614-.2329-.8673-1.0015-1.45-1.8543-1.489-.4606-.7188-1.3501-1.0924-2.2175-.8596z"/><path d="m39.8664 47.301c-.7048.6086.1362 1.654.8816 1.0957.2607-.2098.6437-.1684.8537.0924.2445.304.6881.3494.9886.1071.3025-.2434.3504-.686.107-.9885-.6959-.865-1.9657-1.0026-2.8309-.3067z"/><path d="m50.4318 32.4061c-.471.2217-.5328 1.0812-.138 1.9198.995 1.993 2.6075 1.2336 1.7055-.8029-.3947-.8386-1.0966-1.3386-1.5675-1.1169z"/></g></g></svg>

<svg width="60" height="60" viewBox="0 0 60 60" fill="none" xmlns="http://www.w3.org/2000/svg">
<g clip-path="url(#clip0_2082_279)">
<path d="M21.0408 1.16113C36.2891 1.16113 42.5234 12.1059 40.5577 25.626C38.5919 39.146 33.5822 46.421 29.0891 46.421C21.9282 46.421 28.1175 31.2593 21.0408 31.2593C13.9641 31.2593 20.1534 46.421 12.9925 46.421C8.4994 46.421 3.48964 39.146 1.52391 25.626C-0.441821 12.1059 5.79245 1.16113 21.0408 1.16113Z" fill="#C16A73"/>
<path d="M29.0891 43.6085C28.7115 43.6085 28.6434 43.6085 28.4339 43.0506C28.0459 42.0175 27.9405 40.2976 27.8385 38.6345C27.7121 36.5722 27.5814 34.4398 26.9072 32.6326C25.9002 29.9334 23.8168 28.4468 21.0408 28.4468C18.2648 28.4468 16.1814 29.9334 15.1743 32.6326C14.5001 34.4398 14.3694 36.5722 14.243 38.6345C14.141 40.2976 14.0356 42.0175 13.6476 43.0506C13.4381 43.6085 13.37 43.6085 12.9924 43.6085C12.0525 43.6085 10.4407 42.5738 8.73587 39.6697C7.32419 37.265 5.40993 32.8062 4.30712 25.2213C3.33695 18.5485 4.57921 12.82 7.80512 9.0912C10.7429 5.6954 15.196 3.97363 21.0408 3.97363C26.8855 3.97363 31.3386 5.6954 34.2764 9.0912C37.5023 12.82 38.7446 18.5485 37.7744 25.2213C36.6716 32.8062 34.7573 37.265 33.3456 39.6697C31.6408 42.5738 30.029 43.6085 29.0891 43.6085Z" fill="#DB7D8B"/>
<path d="M27.1254 1.16113H21.791L21.7951 1.17071C36.4942 1.52707 42.4907 12.3312 40.5577 25.626C38.592 39.146 33.5822 46.421 29.0891 46.421H35.1737C39.6668 46.421 44.6765 39.146 46.6423 25.626C48.608 12.1059 42.3737 1.16113 27.1254 1.16113Z" fill="#6CACDD"/>
<path d="M21.0408 31.2593C13.9642 31.2593 20.1533 46.4206 12.9928 46.421H19.0771C24.648 46.421 22.1399 37.2457 24.0831 33.1707C23.5285 32.0077 22.6121 31.2593 21.0408 31.2593Z" fill="#964551"/>
<path d="M21.0407 25.0472C22.444 25.0472 23.5815 22.1542 23.5815 18.5855C23.5815 15.0168 22.444 12.1238 21.0407 12.1238C19.6375 12.1238 18.5 15.0168 18.5 18.5855C18.5 22.1542 19.6375 25.0472 21.0407 25.0472Z" fill="#EF97A8"/>
<path d="M21.0408 21.1221C22.4417 21.1221 23.5773 19.9865 23.5773 18.5856C23.5773 17.1847 22.4417 16.0491 21.0408 16.0491C19.6399 16.0491 18.5043 17.1847 18.5043 18.5856C18.5043 19.9865 19.6399 21.1221 21.0408 21.1221Z" fill="#FFFFF5"/>
<path d="M45.2651 31.2421C45.2651 31.2421 42.3114 28.9128 39.4608 27.9473C39.4608 27.9473 34.4032 32.0852 33.8055 38.3842C33.2078 44.6831 35.6344 45.4657 35.6344 45.4657L45.2651 31.2421Z" fill="#91CAED"/>
<path d="M45.2391 48.361C43.7461 50.904 46.0371 52.4848 47.0168 52.4848C47.0168 48.1934 49.2844 48.6727 50.7563 48.7055C52.227 48.7383 53.5148 48.6727 53.5148 48.6727C53.5148 53.3989 49.4684 53.7563 49.4684 53.7563C49.4684 53.7563 53.5148 54.1137 53.5148 58.8387C53.5148 58.8387 52.227 58.7743 50.7563 58.8059C49.2844 58.8387 47.0168 59.3181 47.0168 55.0266C37.943 56.3145 31.0781 44.6215 39.1699 35.488C47.2617 26.3532 58.7871 32.1165 58.7871 32.1165C58.7871 32.1165 59.6988 39.0492 52.9629 44.4376C50.5102 46.3993 46.8938 45.5415 45.2391 48.361Z" fill="#AFEEFF"/>
<path d="M42.1041 51.2954C40.8527 50.52 39.813 49.331 39.1398 47.8354C37.6311 44.4837 38.4294 40.565 41.2751 37.353C43.7543 34.5542 46.8994 33.1353 50.6232 33.1353C52.776 33.1353 54.6955 33.6105 55.9628 34.0263C55.7532 35.9609 54.8332 39.3398 51.206 42.2413C50.6304 42.7016 49.7483 42.9281 48.7268 43.1903C46.8812 43.664 44.3537 44.3128 42.8134 46.9374C41.9765 48.3629 41.7374 49.8934 42.1041 51.2954Z" fill="#CAF8FF"/>
<path d="M46.6513 39.4889C46.2864 38.8006 45.6471 38.2978 44.8909 38.1106C43.3396 37.7265 41.3296 37.9033 42.26 39.7685C43.5025 42.2595 45.6092 45.0437 46.811 41.6999C47.072 40.974 47.0126 40.1705 46.6513 39.4889Z" fill="#91CAED"/>
<path d="M23.4992 23.4121C24.5486 20.8572 24.5487 16.3142 23.4992 13.7593C22.9063 12.2514 22.0359 11.4209 21.0483 11.4209C18.4574 11.5849 17.8082 16.0679 17.8043 18.5857C17.8044 20.3976 18.0859 22.1117 18.5973 23.4121C19.7736 26.524 22.3228 26.5249 23.4992 23.4121ZM21.0483 12.8271C21.5544 12.8271 22.2395 13.9269 22.6139 15.7508C21.6988 15.2166 20.3977 15.2166 19.4826 15.7508C19.857 13.9269 20.5422 12.8271 21.0483 12.8271ZM22.8816 18.5857C22.8816 19.5966 22.0592 20.419 21.0483 20.419C18.6161 20.3183 18.6168 16.8527 21.0483 16.7524C22.0592 16.7524 22.8816 17.5748 22.8816 18.5857ZM19.4826 21.4206C20.3977 21.9548 21.6988 21.9548 22.6139 21.4206C22.2395 23.2445 21.5544 24.3443 21.0483 24.3443C20.5422 24.3443 19.857 23.2445 19.4826 21.4206Z" fill="#5B5B5B"/>
<path d="M59.4913 32.0242C59.4609 31.7928 59.3175 31.5915 59.1086 31.4872C58.986 31.4258 56.0583 29.9813 52.074 29.6754C50.1366 29.527 48.2901 29.6788 46.5575 30.1186C50.4212 14.3822 44.6074 0.457096 27.1327 0.458145C27.1329 0.458102 21.7985 0.458102 21.7985 0.458102C21.7664 0.458102 21.7347 0.46082 21.7035 0.465255C6.44142 -0.027541 -1.42134 11.0703 0.835772 25.7275C2.03943 33.8575 5.46921 46.5557 12.9999 47.1245C13.0002 47.1244 19.0843 47.1243 19.0846 47.1244C24.5737 47.0198 23.4678 39.8706 24.0877 35.9613C24.7177 39.8044 23.5945 47.0245 29.0966 47.1244C29.1295 47.1217 35.1894 47.1279 35.2179 47.123C36.3498 52.3104 41.2225 56.2283 46.3469 55.8038C46.5837 58.9711 48.1611 59.7514 50.7789 59.5093C52.2061 59.4781 53.4742 59.5405 53.4868 59.5411C53.6782 59.5509 53.8673 59.4812 54.0066 59.3484C54.1462 59.2156 54.2252 59.0315 54.2252 58.8389C54.17 55.8682 52.9359 54.5899 51.5941 53.7561C52.9358 52.9243 54.1702 51.6423 54.2253 48.6732C54.2252 48.4806 54.1462 48.2965 54.0066 48.1637C53.867 48.0308 53.6793 47.9607 53.4867 47.971C53.4741 47.9716 52.2053 48.0335 50.7789 48.0028C48.2597 47.7755 46.6562 48.4583 46.3622 51.5204C45.4149 50.9072 45.1672 49.825 45.8525 48.7173C47.3083 46.2331 51.1271 46.9502 53.4096 44.987C57.884 41.5289 59.913 36.0326 59.4913 32.0242ZM26.0698 42.1928C25.9099 41.2214 25.8208 40.0707 25.7406 38.7637C25.7307 38.6022 25.7207 38.4401 25.7105 38.278C26.8201 35.2207 31.3117 34.9558 34.3036 33.8054C33.5577 35.4461 33.0743 37.5572 33.0307 39.5271C30.6239 40.047 27.5574 40.4076 26.0698 42.1928ZM23.6775 31.452C23.3503 31.1712 22.9731 30.9525 22.5678 30.8056C22.9804 29.1168 24.3893 27.8195 25.8728 26.4543C28.0149 24.4829 30.4429 22.2486 30.2713 18.3878C29.9562 11.309 25.4121 8.13915 21.0483 8.13915C16.6843 8.13915 12.1399 11.3081 11.8253 18.3878C11.6537 22.2486 14.0817 24.4829 16.2239 26.4543C17.7076 27.8197 19.1168 29.1171 19.5291 30.8063C18.9041 31.0326 18.3754 31.4131 17.9459 31.9467C16.8814 29.8937 14.8834 28.6781 12.9389 27.4961C9.80492 25.5912 6.84468 23.7917 7.14921 18.6271C7.39829 14.4026 9.04297 10.9529 11.9053 8.65081C16.8187 4.57461 25.6912 4.57445 30.6046 8.65087C33.467 10.9529 35.1116 14.4026 35.3607 18.6271C35.6652 23.7917 32.705 25.591 29.571 27.4961C27.5211 28.7422 25.412 30.0257 24.3998 32.2884C24.1979 31.9811 23.954 31.6887 23.6775 31.452ZM20.9167 30.5581C19.7173 25.6281 12.8959 24.1103 13.2303 18.4502C13.6083 6.56382 28.4896 6.56627 28.8664 18.4503C29.2009 24.1099 22.3793 25.6286 21.1799 30.558C21.0923 30.5572 21.0043 30.5571 20.9167 30.5581ZM34.9139 43.497C34.429 42.2247 34.3881 40.832 34.4398 39.4849C34.5679 34.6555 37.3363 30.9071 39.6227 28.7506C41.1903 29.3434 42.8702 30.3959 43.8556 31.0809C39.1014 33.1713 35.0221 38.7873 34.9139 43.497ZM30.0603 2.01427C44.9922 3.60763 48.472 16.7125 45.0938 30.2312C44.2555 29.6263 42.6625 28.5522 40.9322 27.7734C42.9636 17.4672 40.7492 6.19716 30.0603 2.01427ZM6.21743 7.71125C9.76412 3.35843 16.7508 1.32171 23.403 1.96058C27.3843 2.28723 31.3036 3.54635 34.3433 6.17855C40.276 11.3097 40.9971 19.9285 39.5943 27.2556C39.3943 27.2187 39.1807 27.2751 39.0231 27.4032C38.8914 27.5109 36.9492 29.1259 35.315 31.8495C32.2278 33.4526 27.9654 33.4547 25.5148 35.9826C25.4347 35.3277 25.3264 34.6978 25.1718 34.1146C25.2667 34.0248 25.3381 33.908 25.3715 33.7717C27.1918 27.5151 37.3121 28.7394 36.7645 18.5442C35.8031 -0.671711 6.70747 -0.672459 5.74537 18.5442C5.21818 28.6384 15.0488 27.507 17.0861 33.5766C16.8408 34.3014 16.6872 35.1208 16.5818 35.9826C15.1671 34.4804 12.9994 33.8739 10.884 33.2833C6.99333 32.1971 2.97596 31.0744 2.12333 24.7421C1.27344 17.7845 2.71545 11.7593 6.21743 7.71125ZM10.5059 34.6378C13.1977 35.3893 15.5281 36.0414 16.3861 38.278C16.3759 38.4401 16.3659 38.6022 16.356 38.7637C16.2724 40.0639 16.2073 41.0613 16.0268 42.1928C13.8018 39.2913 6.61237 40.2238 5.39871 37.6663C4.55667 35.6861 3.84171 33.4312 3.24909 30.9361C5.25621 33.1715 8.05983 33.9549 10.5059 34.6378ZM6.92433 40.7378C6.84644 40.6051 6.76947 40.4698 6.69299 40.333C9.4511 41.3646 15.0894 41.3976 15.4619 44.1873C14.9969 45.1562 14.2684 45.6925 13.0796 45.7157C10.9769 45.7517 8.84203 43.9817 6.92433 40.7378ZM23.3111 33.198C22.6882 34.739 22.5627 36.783 22.4412 38.764C22.1756 43.0909 21.8172 45.7181 19.0846 45.7181H16.1531C19.0369 42.3783 16.2234 32.2907 20.7168 31.9788C21.791 31.8697 22.7919 32.248 23.3111 33.198ZM26.6347 44.1873C26.9177 42.1306 30.1152 41.5168 33.0313 40.9645C33.0622 41.7218 33.1704 42.5745 33.363 43.281C32.6211 44.1173 31.7623 44.8821 30.7358 45.3452C29.197 46.0515 27.3271 45.8087 26.6347 44.1873ZM32.9282 45.6331C33.2847 45.3544 33.6195 45.0494 33.9391 44.7263C34.2026 45.1882 34.4855 45.5043 34.7349 45.7181H32.821C32.8569 45.6908 32.8925 45.6612 32.9282 45.6331ZM57.7111 36.1443C57.1014 38.4883 55.9109 40.5825 54.1674 42.3959C50.9219 43.7739 48.5447 41.3573 47.4871 39.6467C46.58 38.217 46.1039 36.0159 46.7973 34.6933C46.968 34.3445 46.8236 33.9234 46.4748 33.7527C46.1263 33.5818 45.7049 33.7262 45.5342 34.0751C45.0598 35.0444 44.9547 36.2324 45.1694 37.4552C44.212 37.2297 42.8957 37.006 41.9031 37.7215C41.5929 37.9691 40.9461 38.6949 41.6383 40.0824C42.5289 41.868 43.8886 43.9423 45.3978 43.9422C46.4883 43.9459 47.1384 42.9055 47.4811 41.9462C48.7911 43.3402 50.4543 44.1448 52.0814 44.2043C49.639 45.659 46.326 45.1037 44.6398 48.0055C43.926 49.2215 43.8623 50.4663 44.4602 51.5105C45.0841 52.6002 46.2467 53.1881 47.024 53.1881C47.4123 53.1881 47.7271 52.8733 47.7271 52.485C47.7271 51.1314 47.9623 50.2202 48.4261 49.7766C48.9743 49.2443 49.9597 49.3917 50.748 49.4086C51.534 49.4261 52.2627 49.4162 52.7811 49.403C52.6383 50.7238 52.092 51.7208 51.1519 52.3725C50.3011 52.9622 49.4195 53.0551 49.4142 53.0557C49.0513 53.0878 48.773 53.3917 48.773 53.7561C48.773 54.1205 49.0513 54.4244 49.4143 54.4565C49.5444 54.468 52.414 54.762 52.7806 58.1092C52.1945 58.0978 51.1741 58.0779 50.3605 58.118C49.6398 58.1502 48.8946 58.1834 48.426 57.7354C47.9623 57.2919 47.7271 56.3807 47.7271 55.0272C47.7271 54.8235 47.6387 54.6297 47.4849 54.4962C47.3312 54.3625 47.1251 54.3023 46.9252 54.3311C43.1412 54.8667 39.4617 52.9174 37.5497 49.362C33.8831 42.6127 38.6951 34.4761 45.4172 31.93C49.5167 30.268 55.0358 31.1849 58.1236 32.5835C58.1493 33.1993 58.1346 34.5159 57.7111 36.1443ZM45.6609 39.1456C45.8666 39.6421 46.1199 40.1259 46.4122 40.5811C46.0616 42.0595 45.6343 42.5076 45.4274 42.5341C45.0643 42.5812 44.0591 41.7851 42.8967 39.4546C42.8533 39.3679 42.6442 38.9292 42.7803 38.8206C43.2912 38.4292 45.0971 38.771 45.6609 39.1456Z" fill="#5B5B5B"/>
<path d="M38.0721 41.7011C37.1817 41.9735 37.5291 43.2692 38.4366 43.0593C38.76 42.9726 39.0937 43.165 39.1804 43.4884C39.2401 43.7118 39.4131 43.8965 39.6315 43.9712C39.7635 44.0153 39.9068 44.0208 40.0418 43.9852C40.3655 43.8987 40.6988 44.0911 40.7857 44.4143C40.885 44.7925 41.2822 45.0123 41.6471 44.9111C42.0221 44.8104 42.2445 44.4248 42.1439 44.0497C41.911 43.1824 41.1424 42.5997 40.2896 42.5607C39.829 41.8419 38.9395 41.4683 38.0721 41.7011Z" fill="#5B5B5B"/>
<path d="M39.8664 47.301C39.1616 47.9096 40.0026 48.955 40.748 48.3967C41.0087 48.1869 41.3917 48.2283 41.6017 48.4891C41.8462 48.7931 42.2898 48.8385 42.5903 48.5962C42.8928 48.3528 42.9407 47.9102 42.6973 47.6077C42.0014 46.7427 40.7316 46.6051 39.8664 47.301Z" fill="#5B5B5B"/>
<path d="M50.4318 32.4061C49.9608 32.6278 49.899 33.4873 50.2938 34.3259C51.2888 36.3189 52.9013 35.5595 51.9993 33.523C51.6046 32.6844 50.9027 32.1844 50.4318 32.4061Z" fill="#5B5B5B"/>
</g>
<defs>
<clipPath id="clip0_2082_279">
<rect width="60" height="60" fill="white"/>
</clipPath>
</defs>
</svg>
